svg/ava/pose/handsfolded.svg

<svg width="500" height="600" xmlns="http://www.w3.org/2000/svg" xmlns:xlink="http://www.w3.org/1999/xlink"><defs><path id="a" d="M0.0000981481481 0.065L158.857176 0.065 158.857176 27.9996189 0.0000981481481 27.9996189z"/><path id="c" d="M0.177038764 0.0178754832L49.5866124 0.0178754832 49.5866124 73.8994975 0.177038764 73.8994975z"/><path id="e" d="M0 0.401380511L46.1251664 0.401380511 46.1251664 63.3911385 0 63.3911385z"/></defs><g fill="none" fill-rule="evenodd"><g transform="rotate(90 17 248)"><mask id="b" fill="#fff"><use xlink:href="#a"/></mask><path d="M3.59232037,15.42675 C6.40082963,17.21375 9.44685741,18.34875 12.7343296,18.82725 C17.9788759,19.47575 23.2352,20.01675 28.4861259,20.61825 C35.8163204,21.45975 43.1695796,22.04975 50.5272556,22.57525 C50.7181537,22.58875 50.9090519,22.60275 51.1004407,22.61625 C55.7840704,23.07375 60.4672093,23.52525 65.1459315,24.04025 C72.0810796,24.80375 79.0073944,25.53625 85.9621722,26.09875 C91.4005611,26.53825 96.83895,26.92075 102.286663,27.20425 C107.767256,27.48925 113.243922,27.86825 118.730404,27.98325 C121.544311,28.04175 124.331719,27.93275 127.146117,27.82525 C128.328802,27.78025 129.509524,27.66525 130.690246,27.57725 C134.610283,27.28825 138.546024,27.09075 142.441033,26.56725 C144.774015,26.25275 147.350404,25.49525 149.463043,24.85425 C151.410793,24.26675 153.260394,23.29975 154.970626,22.20225 C156.130246,21.45975 157.226561,20.43475 157.924394,19.22375 C159.502126,16.48925 158.800367,15.84075 157.855691,13.09275 L157.740367,12.90525 C156.912487,11.88975 155.986459,10.96575 154.962774,10.13575 C154.799848,9.97575 154.636922,9.82725 154.454857,9.68825 C151.72683,7.64375 146.884691,6.14175 143.669848,5.79025 C141.124376,5.51075 138.569089,5.21775 136.007913,5.24725 C133.370181,5.27425 130.736376,5.42675 128.100607,5.45025 C125.467293,5.47525 122.836431,5.36425 120.208024,5.21425 C115.513107,4.71475 110.827515,4.15725 106.137996,3.62025 C105.018617,3.49325 103.895311,3.40325 102.773478,3.29975 C99.9252185,3.03825 96.9444593,2.61225 94.1187741,2.56175 C92.4797,2.53225 90.8406259,2.50275 89.2035148,2.47375 C87.9074685,2.45225 86.598663,2.59875 85.3065426,2.67475 C78.8940333,3.04375 72.45895,3.39925 66.0641074,3.99725 C65.6666074,4.03425 65.2686167,4.07125 64.8706259,4.10775 C60.4573944,3.64575 56.0353296,3.28625 51.6117926,2.94025 C47.6937185,2.58225 43.7893852,2.16025 39.8767093,1.70425 C37.3862,1.41325 34.8961815,1.10825 32.4002741,0.86625 C29.835663,0.61825 27.2838111,0.40125 24.7054593,0.21175 C24.0709315,0.16525 23.4329685,0.08875 22.7984407,0.07525 C19.4378481,0.00675 16.0527185,0.27625 12.7343296,0.82325 C9.44685741,1.30175 6.40082963,2.43675 3.59232037,4.22375 C1.46643148,5.50075 0.268533333,7.36825 9.81481481e-05,9.82525 C0.268533333,12.28225 1.46643148,14.14925 3.59232037,15.42675" fill="#FC6" mask="url(#b)"/></g><path d="M9.13809737,14.1209293 C9.40792592,15.0920072 10.0641333,15.937565 10.9402191,16.446943 C11.9059213,17.0078913 12.8872941,17.036109 13.9587729,16.8385852 C17.9493952,16.1005465 21.9449145,15.3401283 25.9663882,14.7713958 C29.7630865,14.3019117 33.5935746,14.1077935 37.416717,13.9764352 C39.3505699,13.9097831 41.2863816,13.8718352 43.222683,13.8377793 C44.5385257,13.8149132 45.8622037,13.7657755 47.1804949,13.7808574 C49.8337273,13.8129672 52.4884289,13.8436175 55.1436202,13.8757272 C58.8565786,13.9175673 62.5714958,13.9613534 66.2844541,14.0051394 C67.6904029,14.0221674 69.0792119,14.0523311 70.4817327,14.1321191 C74.1065438,14.3393732 77.7293961,14.5446812 81.3527381,14.7519353 C83.0094168,14.8448591 84.6656058,14.9402154 86.3242434,15.0331392 C86.9515581,15.0691411 87.5827904,15.086169 88.2105947,15.1416314 C93.7790529,15.633495 99.3514287,16.1146554 104.919887,16.606519 C110.000597,17.055083 115.073471,17.5853811 120.15614,18.0018353 C125.718722,18.455751 131.279834,18.9612369 136.844375,19.3966651 C139.540212,19.6078113 142.239967,19.8500943 144.945108,19.8607976 C145.286923,19.9741548 145.638043,20.0276712 145.965168,19.9858311 C146.408842,19.9289092 146.862311,19.919179 147.286887,19.7727389 C147.991085,19.5294829 148.390686,19.2920651 148.939648,18.7865791 C149.878906,17.9215608 150.20603,16.4829449 149.873519,15.2783413 C149.530724,14.0489255 148.559145,13.1192011 147.338796,12.7601553 C146.433817,12.4940332 145.479378,12.3612155 144.542079,12.2605075 C143.897625,12.1899633 143.252681,12.1028776 142.606267,12.0551994 C141.355066,11.9622756 140.103865,11.8688654 138.855112,11.7701034 C135.901199,11.5380372 132.953653,11.2913756 130.003658,11.0325513 C125.175637,10.6126914 120.341739,10.2594837 115.515677,9.80897365 C109.960441,9.29181142 104.405205,8.7790278 98.846051,8.29056978 C95.4719699,7.99379747 92.0973991,7.69945773 88.7233179,7.40268542 C86.9422536,7.24700159 85.1538437,7.1822955 83.3688617,7.08158752 C79.5736326,6.86508969 75.7784035,6.65053791 71.9831743,6.43355357 C70.5081769,6.34987351 69.0390559,6.25305763 67.5625894,6.23602971 C60.9608495,6.15818779 54.3615581,6.08229192 47.7598182,6.0039635 C46.2466237,5.98693558 44.7339188,6.02877561 43.222683,6.05358772 C39.6737765,6.11245567 36.1273185,6.2073255 32.5847782,6.41263356 C28.9291155,6.62377975 25.3003867,7.01882748 21.6848801,7.6006958 C18.4062918,8.12710175 15.1409256,8.72940358 11.8755594,9.3317054 C10.9172029,9.5102553 10.0102655,10.3125135 9.53427032,11.1220695 C9.18168129,11.7204792 9,12.4059746 9,13.0939025 C9,13.439326 9.04603246,13.785236 9.13809737,14.1209293" fill="#2C2C2C" transform="rotate(90 17 248)"/><g transform="rotate(90 19.827 263.473)"><mask id="d" fill="#fff"><use xlink:href="#c"/></mask><path d="M43.6946511,43.630607 C43.7339039,43.7698131 43.7728702,43.9094487 43.8118365,44.0490844 C43.7725837,43.9094487 43.7336174,43.7702427 43.6946511,43.630607 M1.22368483,47.757808 C2.15486461,48.4611422 3.09062865,49.1442829 4.03183652,49.8188307 C4.71890393,50.3124965 5.39938146,50.844401 6.09790955,51.302406 C7.51588146,52.2308759 8.93385337,53.1589161 10.3541174,54.0818005 C11.7508871,54.9896472 13.1488028,55.8944864 14.5455725,56.8023332 C16.1159713,57.8244663 17.6783478,58.8835492 19.2676567,59.8386573 C22.3812354,61.7097754 25.4959601,63.5727302 28.6399096,65.3334286 C30.0902579,66.1454638 31.5540725,66.8891849 33.0204657,67.6376322 C34.4261174,68.3542854 35.8575556,69.0223884 37.2878478,69.6161623 C39.5478927,70.5579513 41.8666736,71.332607 44.049932,72.639597 C44.644741,73.0456146 45.2392635,73.5233834 45.8833534,73.6879387 C46.2472298,73.7803131 46.6188421,73.8473382 46.9870163,73.8911623 C47.2778309,73.9246749 47.5643478,73.8542126 47.8497185,73.7566824 C48.4161624,73.5637704 48.9298871,72.9175794 49.2186961,72.1790141 C49.4828646,71.5010291 49.5688197,70.7843759 49.5857242,70.012298 C49.5957522,69.522499 49.5198253,68.9300141 49.4728365,68.4698608 C49.4324376,68.0823181 49.3808646,67.7029387 49.3204096,67.3205518 C49.2656848,66.9712477 49.208668,66.624092 49.1482129,66.2782251 C49.0149826,65.5246221 48.8828983,64.7710191 48.749668,64.0174161 C48.5651511,62.9686447 48.3322129,61.9362 48.1219096,60.8990291 C48.0310837,60.4526246 47.9101736,60.0148131 47.8050219,59.5765719 C47.6113365,58.7662553 47.4179376,57.9572276 47.2242522,57.1464814 C46.9858702,56.1514161 46.736314,55.1610769 46.4887635,54.1690191 C45.9326343,51.9352779 45.3684826,49.7066925 44.7753927,47.4927151 C44.4120893,46.1354563 44.0255781,44.7902276 43.6425051,43.4441397 C43.0786399,41.424793 42.5253758,39.402009 42.0064938,37.3560241 C41.4804489,35.2795342 40.9847747,33.184999 40.49655,31.0874563 C40.2346736,29.9643558 39.9727972,28.8434035 39.7097747,27.7224513 C39.4547747,26.6363005 39.1536455,25.5707729 38.8737185,24.5000894 C38.5829039,23.3907377 38.3353534,22.2508809 38.074623,21.1264915 C37.8442635,20.1314261 37.6170556,19.132494 37.4053197,18.1275467 C37.1867073,17.0843608 36.978123,16.0338709 36.7830051,14.9795141 C37.1328421,14.6130241 37.4594713,14.1868131 37.7534376,13.7266598 C38.1049938,13.1762804 38.3791904,12.509896 38.6857635,11.904092 C38.5671455,12.1356724 38.4473815,12.3672528 38.3276174,12.5988332 C38.8571006,11.5754111 39.3416006,10.5244915 39.8272466,9.45380804 C40.0309601,9.00568492 40.1922691,8.51717487 40.3467017,8.02909447 C40.4988421,7.54745879 40.6332185,7.0318809 40.7529826,6.52704422 C40.9162972,5.84218492 40.9601343,5.1152201 41.014859,4.39727789 C41.0429376,4.03121759 40.9609938,3.13668995 40.9108534,2.92186583 C40.8188815,2.52916734 40.7429545,2.11627538 40.5716174,1.78415729 C40.2896848,1.23678543 40.0971455,0.812292965 39.6685163,0.491775377 C39.2353028,0.16610201 38.8960669,0.0316221106 38.4081287,0.0178754832 C37.7457017,0.00154673367 37.070668,0.479745226 36.5426174,1.02883568 C36.2334657,1.34935327 35.9437972,1.71197638 35.6561343,2.07116231 C35.1111792,2.75387337 34.6063365,3.51263216 34.1238421,4.28986583 C33.9089545,4.63530302 33.6997972,4.99277035 33.4972298,5.35195628 C33.0101511,6.21468995 32.5010107,7.07054925 32.1629208,8.08752663 C32.0188028,8.52404925 31.9033365,8.98205427 31.7970388,9.44220754 C31.7918815,9.46454925 31.7870107,9.48689095 31.7821399,9.50966231 C31.7451792,9.55735327 31.7090781,9.60719246 31.6749826,9.65875025 C31.282168,10.2460794 31.0595444,11.0533884 31.0595444,11.8838985 C31.0595444,12.7466322 31.2921961,13.4869161 31.6749826,14.111195 C31.7746904,14.2744613 31.8764039,14.4330015 31.9752522,14.5966975 C31.9818421,14.6383734 31.9887185,14.6791899 31.9953084,14.7204362 C32.3399882,16.8600844 32.7663253,18.9816874 33.2273309,21.0710668 C33.7098253,23.2614136 34.2212579,25.4380116 34.7831174,27.5862528 C35.3157522,29.6206372 35.7859264,31.6846673 36.2727185,33.7456899 C36.8222579,36.0752427 37.3887017,38.3944839 37.9729096,40.7055618 C38.5594096,43.0217955 39.2275669,45.294205 39.8722298,47.5734889 C39.9742298,47.9361121 40.0768028,48.2983055 40.1793758,48.660499 C41.0443702,51.8944613 41.8893084,55.1451799 42.6746511,58.4255442 C43.0875219,60.1488633 43.5276118,61.8610116 43.8834657,63.6131171 C44.0198478,64.2872352 44.1631062,64.9579161 44.2911792,65.6341824 C43.99005,65.4868131 43.6872017,65.3463181 43.3832073,65.2092603 C41.9718253,64.5712327 40.5335107,64.0694035 39.1100949,63.4971121 C37.5073197,62.8543583 35.9257466,62.1175116 34.343314,61.3793759 C33.0224713,60.7632603 31.7087916,60.0917201 30.4114433,59.3754965 C26.9190893,57.4472352 23.4599713,55.4055467 19.9985612,53.3569839 C17.469477,51.7204538 14.9340893,50.1101322 12.4067242,48.4680166 C11.6715219,47.9898181 10.9351736,47.5111899 10.1996848,47.0329915 C9.54384775,46.6067804 8.87225225,46.2140819 8.22644326,45.7509211 C6.60705,44.5891523 4.9819264,43.4428508 3.37829157,42.2295241 C2.85425225,41.8333884 2.31273539,41.6692628 1.73397135,41.9072879 C1.20019045,42.1272678 0.736892697,42.6626095 0.458111798,43.3792628 C0.269583708,43.8621874 0.177038764,44.4276045 0.177038764,44.9951698 C0.177038764,46.111396 0.534898315,47.2362151 1.22368483,47.757808" fill="#2C2C2C" mask="url(#d)"/></g><g transform="rotate(90 25.986 268.486)"><mask id="f" fill="#fff"><use xlink:href="#e"/></mask><path d="M0.828205618,29.563408 C1.37000899,29.837094 1.91954831,29.4860714 2.43327303,29.2342975 C2.82809326,29.0396668 3.22205393,28.850192 3.61830674,28.6637246 C4.31225056,28.3367623 5.00619438,28.0145261 5.7001382,27.6935789 C7.18630112,27.0074307 8.68048652,26.3595211 10.168082,25.6746618 C10.8886719,25.3442623 11.6072562,25.0018327 12.3235483,24.6508101 C13.0879753,24.2765864 13.8334921,23.8203 14.5855989,23.3940889 C15.9800764,22.600099 17.3444697,21.6870965 18.7343629,20.8763503 C20.1592112,20.0441216 21.5860652,19.2333754 23.0243798,18.4548528 C24.4881944,17.6608628 25.9611775,16.8887849 27.404936,16.0196065 C28.8610146,15.1401166 30.3059191,14.2133653 31.7674416,13.3592246 C33.2997337,12.4612598 34.8297337,11.5568503 36.3628854,10.6623226 C36.9539697,10.3164558 37.5593798,10.0161317 38.1604921,9.71237035 C38.9160371,9.32955377 39.6712955,8.96564171 40.4368685,8.62321206 C40.6216719,8.54028995 40.8067618,8.46123467 40.9927112,8.38389799 C40.5153742,11.3347221 39.9159809,14.2460186 39.3054135,17.1319658 C38.8174753,19.4400362 38.3326888,21.7493955 37.8404528,24.0553176 C37.3949191,26.1429784 36.9574079,28.235795 36.4525652,30.2916618 C35.9153461,32.4820085 35.3523404,34.6568879 34.8208517,36.8489533 C34.5701494,37.8826869 34.3194472,38.9181392 34.0999753,39.9673402 C33.8681831,41.0818477 33.6467056,42.2045186 33.390273,43.306996 C33.1487393,44.3458854 32.913509,45.3882121 32.6608011,46.4219457 C32.4436213,47.3031543 32.2241494,48.179207 32.0519528,49.0840462 C31.9668573,49.5304508 31.902964,49.9867372 31.8402169,50.4417347 C31.6903685,51.5240186 31.5995427,52.6604382 31.8370652,53.7345588 C32.0169978,54.5517497 32.249936,55.0991216 32.6350146,55.7332824 C32.8699584,56.1195362 33.1799697,56.4112673 33.4699247,56.699991 C33.7429753,56.9736769 34.0217562,57.2370513 34.3002506,57.4974181 C34.6942112,57.8647673 35.1004921,58.2003226 35.4921607,58.5732573 L36.620464,59.6503854 C37.0075483,60.0198829 37.4006494,60.3807874 37.7777056,60.7752045 C38.0215315,61.028697 38.259627,61.2963678 38.4962899,61.5670462 C38.8011438,61.9288101 39.1080034,62.2897146 39.4217393,62.6330035 C40.037464,63.3041141 40.8554697,63.5709256 41.5952562,63.2654457 C42.6092393,62.8478276 43.3458742,61.4145211 43.3458742,59.8299784 C43.3458742,58.9908754 43.1398685,58.2591844 42.8745539,57.539094 C42.7166831,57.1094457 42.4748629,56.7369407 42.2657056,56.3575613 C41.9511101,55.788707 41.6299247,55.2331719 41.2929809,54.6926744 C40.7110652,53.7646342 40.0987787,52.8885814 39.4856326,52.0090915 C38.8977,51.1669809 38.3306831,50.2982322 37.7648124,49.423898 C37.6241326,49.119707 37.486318,48.8125085 37.3479303,48.5048804 C37.2774472,48.3484884 37.2035258,48.2006894 37.1247337,48.0627724 C37.1860483,47.806702 37.2473629,47.550202 37.3075315,47.2932724 C37.5582337,46.2174332 37.810082,45.1433126 38.0430202,44.0571618 C38.2733798,42.9813226 38.4917056,41.9007573 38.7335258,40.8300739 C39.2383685,38.5928955 39.8056719,36.3909482 40.3629472,34.1838452 C40.8935764,32.0824357 41.3815146,29.9612623 41.8425202,27.822903 C42.7894584,23.4224457 43.708318,19.0086693 44.6114191,14.5880186 C45.0738573,12.3237724 45.4297112,10.023006 45.7678011,7.71192814 C45.8348461,7.25693065 45.8987393,6.80064422 45.9488798,6.33877236 C46.011627,5.75144322 46.070936,5.16411407 46.1124809,4.57162915 C46.1448573,4.12006884 46.113627,3.5327397 46.0374135,3.12500352 C45.9792506,2.80620452 45.8964472,2.49900603 45.7878573,2.20684523 C45.6592112,1.95507136 45.5305652,1.70501608 45.4004865,1.4549608 C45.2225596,1.11253116 44.6283236,0.614139196 44.3495427,0.536802513 C44.108009,0.469777387 43.8638966,0.375684422 43.6166326,0.40790804 C43.2796888,0.453021106 43.0032,0.521764824 42.6943348,0.654526131 C42.3788798,0.790294975 42.0642843,0.932938191 41.7485427,1.06913668 C39.4810483,2.04400854 37.2169921,3.03778492 35.0265708,4.36668693 C32.5106663,5.89236784 30.0036438,7.44511658 27.5112337,9.05629749 C27.618391,8.98798342 27.7252618,8.92052864 27.8324191,8.85264422 C27.1149809,9.3093603 26.3998348,9.7858402 25.6735146,10.2107623 C24.8004978,10.7211844 23.928627,11.2346141 23.054464,11.7398804 C22.0863236,12.2984231 21.1204753,12.8608327 20.155773,13.4365613 C19.152964,14.0337724 18.1624753,14.6752372 17.1685483,15.3059608 C17.3310034,15.2037045 17.4920258,15.1014482 17.6544809,14.999192 C16.2158798,15.9096166 14.7933236,16.8767548 13.3610258,17.8065136 C12.4129416,18.3938427 11.4645708,18.9777347 10.5038798,19.5238176 C9.43603146,20.1313402 8.36273933,20.7238251 7.30062135,21.3562673 C6.09180674,22.0763578 4.87296404,22.7745362 3.69996404,23.6205136 C2.64701461,24.3801317 1.60294719,25.2119307 0.682655056,26.3010889 C0.624778652,26.3633879 0.567475281,26.4261166 0.511891011,26.4927121 C0.19958764,26.8007698 -0.000114606742,27.4035663 -0.000114606742,27.9337523 C-0.000114606742,28.7174307 0.349149438,29.3232347 0.828205618,29.563408" fill="#2C2C2C" mask="url(#f)"/></g></g></svg>

<svg width="500" height="600" xmlns="http://www.w3.org/2000/svg" xmlns:xlink="http://www.w3.org/1999/xlink"><defs><path id="a" d="M0 .065h158.857V28H0z"/><path id="c" d="M.177.018h49.41v73.881H.177z"/><path id="e" d="M0 .401h46.125v62.99H0z"/></defs><g fill="none" fill-rule="evenodd"><g transform="rotate(90 17 248)"><mask id="b" fill="#fff"><use xlink:href="#a"/></mask><path d="M3.592 15.427a23.021 23.021 0 009.142 3.4c5.245.649 10.501 1.19 15.752 1.791 7.33.842 14.684 1.432 22.041 1.957l.573.041c4.684.458 9.367.91 14.046 1.424 6.935.764 13.861 1.496 20.816 2.059 5.439.44 10.877.822 16.325 1.105 5.48.285 10.957.664 16.443.78 2.814.058 5.602-.051 8.416-.159 1.183-.045 2.364-.16 3.544-.248 3.92-.289 7.856-.486 11.751-1.01 2.333-.314 4.91-1.072 7.022-1.713 1.948-.587 3.797-1.554 5.508-2.652 1.16-.742 2.256-1.767 2.953-2.978 1.578-2.735.876-3.383-.068-6.131l-.116-.188a19.072 19.072 0 00-2.777-2.77 5.382 5.382 0 00-.508-.447c-2.728-2.044-7.57-3.546-10.785-3.898-2.546-.28-5.1-.572-7.662-.543-2.638.027-5.272.18-7.907.203-2.634.025-5.265-.086-7.893-.236-4.695-.5-9.38-1.057-14.07-1.594-1.12-.127-2.243-.217-3.365-.32-2.848-.262-5.829-.688-8.654-.738-1.64-.03-3.278-.06-4.915-.088-1.297-.022-2.605.125-3.897.2-6.413.37-12.848.725-19.243 1.323l-1.193.11c-4.414-.461-8.836-.82-13.26-1.167-3.917-.358-7.822-.78-11.734-1.236-2.49-.29-4.98-.596-7.477-.838a334.379 334.379 0 00-7.695-.654c-.634-.047-1.272-.123-1.907-.137-3.36-.068-6.745.201-10.064.748a23.021 23.021 0 00-9.142 3.4C1.466 5.502.27 7.369 0 9.826c.269 2.457 1.466 4.324 3.592 5.602" fill="#FC6" mask="url(#b)"/></g><path d="M250.88 240.138a3.93 3.93 0 00-2.327 1.802c-.56.966-.59 1.947-.392 3.019.738 3.99 1.499 7.986 2.068 12.007.47 3.797.663 7.628.795 11.45.066 1.935.104 3.87.138 5.807.023 1.316.072 2.64.057 3.957l-.095 7.964c-.042 3.713-.085 7.427-.13 11.14a93.555 93.555 0 01-.126 4.198l-.62 10.87-.281 4.972c-.036.628-.053 1.259-.109 1.887-.491 5.568-.973 11.14-1.465 16.709-.448 5.08-.978 10.153-1.395 15.236-.454 5.563-.96 11.124-1.395 16.688-.21 2.696-.453 5.396-.464 8.101-.113.342-.167.693-.125 1.02.057.444.067.897.213 1.322.244.704.48 1.104.986 1.653.865.939 2.304 1.266 3.509.934 1.23-.343 2.159-1.315 2.518-2.535.266-.905.399-1.86.5-2.797.07-.644.157-1.29.205-1.936.093-1.25.186-2.502.285-3.75.232-2.955.479-5.902.737-8.852.42-4.828.774-9.662 1.224-14.488.517-5.556 1.03-11.11 1.518-16.67.297-3.374.592-6.749.888-10.123.156-1.78.22-3.57.321-5.354.217-3.795.431-7.59.648-11.386.084-1.475.18-2.944.198-4.42l.232-19.803c.017-1.513-.025-3.026-.05-4.537-.058-3.55-.153-7.096-.359-10.638a107.536 107.536 0 00-1.188-10.9c-.526-3.279-1.128-6.544-1.73-9.81-.18-.958-.982-1.865-1.791-2.34a3.893 3.893 0 00-2.999-.397" fill="#2C2C2C"/><g transform="rotate(90 19.827 263.473)"><mask id="d" fill="#fff"><use xlink:href="#c"/></mask><path d="M1.224 47.758a138.8 138.8 0 002.808 2.06c.687.494 1.367 1.026 2.066 1.484 1.418.929 2.836 1.857 4.256 2.78 1.397.908 2.795 1.812 4.192 2.72 1.57 1.022 3.132 2.082 4.722 3.037 3.113 1.87 6.228 3.734 9.372 5.494 1.45.812 2.914 1.556 4.38 2.305a60.55 60.55 0 004.268 1.978c2.26.942 4.579 1.717 6.762 3.024.595.406 1.19.883 1.833 1.048.364.092.736.16 1.104.203.29.034.577-.037.863-.134.566-.193 1.08-.84 1.369-1.578.264-.678.35-1.395.367-2.167.01-.49-.066-1.082-.113-1.542-.04-.388-.092-.767-.153-1.15a50.275 50.275 0 00-.172-1.042l-.398-2.26c-.185-1.05-.418-2.082-.628-3.119-.09-.446-.212-.884-.317-1.322l-.58-2.43c-.24-.996-.489-1.986-.736-2.978a388.975 388.975 0 00-1.714-6.676c-.363-1.358-.75-2.703-1.132-4.049a263.085 263.085 0 01-1.637-6.088 332.351 332.351 0 01-1.51-6.269c-.261-1.123-.523-2.244-.786-3.365-.255-1.086-.556-2.151-.836-3.222-.291-1.11-.539-2.25-.8-3.374-.23-.995-.457-1.994-.669-2.998a136.133 136.133 0 01-.622-3.148c.35-.367.676-.793.97-1.253.352-.55.626-1.217.933-1.823l-.358.695a67.555 67.555 0 001.5-3.145c.203-.448.364-.937.519-1.425.152-.482.286-.997.406-1.502.163-.685.207-1.412.262-2.13.028-.366-.054-1.26-.104-1.475-.092-.393-.168-.806-.34-1.138-.281-.547-.474-.972-.902-1.292-.434-.326-.773-.46-1.26-.474-.663-.016-1.338.462-1.866 1.01-.31.321-.6.684-.887 1.043-.545.683-1.05 1.442-1.532 2.219-.215.345-.424.703-.627 1.062-.487.863-.996 1.719-1.334 2.736a15.388 15.388 0 00-.38 1.422 2.452 2.452 0 00-.108.149c-.393.587-.615 1.394-.615 2.225 0 .863.232 1.603.615 2.227.1.163.201.322.3.486l.02.123c.345 2.14.771 4.262 1.232 6.351.483 2.19.994 4.367 1.556 6.515.533 2.035 1.003 4.099 1.49 6.16.55 2.33 1.116 4.648 1.7 6.96.586 2.316 1.255 4.588 1.9 6.867.101.363.204.725.306 1.087.865 3.234 1.71 6.485 2.496 9.766.413 1.723.853 3.435 1.208 5.187.137.674.28 1.345.408 2.021a31.743 31.743 0 00-.908-.425c-1.411-.638-2.85-1.14-4.273-1.712-1.603-.643-3.184-1.38-4.767-2.118a65.025 65.025 0 01-3.932-2.004C26.92 57.447 23.46 55.405 20 53.357c-2.53-1.637-5.065-3.247-7.592-4.889L10.2 47.033c-.656-.426-1.328-.819-1.974-1.282-1.619-1.162-3.244-2.308-4.848-3.521-.524-.397-1.065-.56-1.644-.323-.534.22-.997.756-1.276 1.472a4.513 4.513 0 00-.281 1.616c0 1.116.358 2.241 1.047 2.763" fill="#2C2C2C" mask="url(#d)"/></g><g transform="rotate(90 25.986 268.486)"><mask id="f" fill="#fff"><use xlink:href="#e"/></mask><path d="M.828 29.563c.542.274 1.092-.077 1.605-.329a72.29 72.29 0 011.185-.57c.694-.327 1.388-.65 2.082-.97 1.486-.687 2.98-1.334 4.468-2.02.72-.33 1.44-.672 2.156-1.023.764-.374 1.51-.83 2.262-1.257 1.394-.794 2.758-1.707 4.148-2.518a151.525 151.525 0 014.29-2.421c1.464-.794 2.937-1.566 4.38-2.435 1.457-.88 2.902-1.807 4.363-2.66 1.533-.899 3.063-1.803 4.596-2.698.591-.346 1.196-.646 1.797-.95a53.77 53.77 0 012.277-1.089c.185-.083.37-.162.556-.24-.478 2.952-1.077 5.863-1.688 8.749-.488 2.308-.972 4.617-1.465 6.923-.445 2.088-.883 4.18-1.387 6.237-.538 2.19-1.1 4.365-1.632 6.557-.25 1.034-.502 2.07-.721 3.118-.232 1.115-.453 2.238-.71 3.34-.241 1.039-.476 2.081-.73 3.115-.216.881-.436 1.757-.608 2.662-.085.446-.149.903-.212 1.358-.15 1.082-.24 2.218-.003 3.293.18.817.413 1.364.798 1.998.235.387.545.678.835.967.273.274.552.537.83.797.394.368.8.703 1.192 1.076l1.128 1.077c.388.37.78.73 1.158 1.125.244.254.482.521.718.792.305.362.612.723.926 1.066.615.671 1.433.938 2.173.632 1.014-.417 1.75-1.85 1.75-3.435 0-.84-.205-1.57-.47-2.29-.158-.43-.4-.803-.61-1.182a36.89 36.89 0 00-.972-1.665c-.582-.928-1.194-1.804-1.807-2.684a88.762 88.762 0 01-1.721-2.585c-.14-.304-.279-.611-.417-.92a5.194 5.194 0 00-.223-.441l.183-.77c.25-1.076.502-2.15.735-3.236.23-1.076.449-2.156.69-3.227.505-2.237 1.073-4.44 1.63-6.646.53-2.102 1.019-4.223 1.48-6.361.946-4.4 1.865-8.814 2.768-13.235.463-2.264.819-4.565 1.157-6.876.067-.455.13-.911.18-1.373.064-.588.123-1.175.164-1.767a6.336 6.336 0 00-.075-1.447 5.433 5.433 0 00-.25-.918 66.55 66.55 0 00-.387-.752c-.177-.342-.772-.84-1.05-.918-.242-.067-.486-.161-.733-.13a3.322 3.322 0 00-.923.248c-.315.135-.63.278-.945.414-2.268.975-4.532 1.969-6.722 3.298a307.845 307.845 0 00-7.516 4.69l.321-.204c-.717.456-1.432.933-2.158 1.358-.874.51-1.745 1.024-2.62 1.529a226.96 226.96 0 00-2.898 1.697c-1.003.597-1.994 1.238-2.987 1.869l.485-.307c-1.438.91-2.86 1.878-4.293 2.808a88.525 88.525 0 01-2.857 1.717c-1.068.607-2.141 1.2-3.203 1.832-1.21.72-2.428 1.419-3.601 2.265-1.053.76-2.097 1.59-3.017 2.68a4.806 4.806 0 00-.171.192C.2 26.8 0 27.403 0 27.933c0 .784.35 1.39.828 1.63" fill="#2C2C2C" mask="url(#f)"/></g></g></svg>
